// my first try at making one of these things
// http://www.contextfreeart.org/

startshape scene
background {h 222.44 sat 0.5269 b 1.0000}

tile
{ 
  s 10
}

rule shapes
{
  CIRCLE { x 0 }
  CIRCLE { b 0.5    x 1.2  }
  CIRCLE { b 1    x 1.3  }
  CIRCLE { b 0.8    x 1.3  s 0.9 }
}

rule scene
{
  CIRCLE { b 1 s 4.75 } 
  60 * { r 15 } TRIANGLE { x 2 r 10 }
  60 * { r 15 } SQUARE { x 2 r 10  s .05 .2 h 0.67 sat 0.9445 b 1.0000 }
  15 * { r 60 }  shapes {  }
}
